src/flags/country-flag/1F1EC-1F1F9.svg

<svg id="emoji" viewBox="0 0 72 72" xmlns="http://www.w3.org/2000/svg">
  <g id="grid">
    <path fill="#b3b3b3" d="M68,4V68H4V4H68m4-4H0V72H72V0Z"/>
    <path fill="none" stroke="#00a5ff" stroke-miterlimit="10" stroke-width="0.1" d="M12.923,10.9583H59.0769A1.9231,1.9231,0,0,1,61,12.8814V59.0352a1.9231,1.9231,0,0,1-1.9231,1.9231H12.9231A1.9231,1.9231,0,0,1,11,59.0352V12.8813A1.923,1.923,0,0,1,12.923,10.9583Z"/>
    <rect x="16" y="4" rx="2.2537" ry="2.2537" width="40" height="64" fill="none" stroke="#00a5ff" stroke-miterlimit="10" stroke-width="0.1"/>
    <rect x="16" y="4" rx="2.2537" ry="2.2537" width="40" height="64" transform="translate(72) rotate(90)" fill="none" stroke="#00a5ff" stroke-miterlimit="10" stroke-width="0.1"/>
    <circle cx="36" cy="36" r="29" fill="none" stroke="#00a5ff" stroke-miterlimit="10" stroke-width="0.1"/>
  </g>
  <g id="color">
    <rect x="5" y="17" width="62" height="38" fill="#fff"/>
    <rect x="5" y="17" width="21" height="38" fill="#92d3f5"/>
    <rect x="46" y="17" width="21" height="38" fill="#92d3f5"/>
    <path fill="none" stroke="#b1cc33" stroke-linecap="round" stroke-linejoin="round" stroke-width="2" d="M31.1056,30a7,7,0,1,0,9.7889,0"/>
    <line x1="32" x2="29" y1="38" y2="42" fill="none" stroke="#a57939" stroke-linecap="round" stroke-linejoin="round" stroke-width="2"/>
    <line x1="40" x2="43" y1="39" y2="42" fill="none" stroke="#a57939" stroke-linecap="round" stroke-linejoin="round" stroke-width="2"/>
    <path fill="#fcea2b" stroke="#fcea2b" stroke-linecap="round" stroke-linejoin="round" stroke-width="2" d="M35,36a4.9253,4.9253,0,0,0,2.5-4A4.9253,4.9253,0,0,0,35,28Z"/>
  </g>
  <g id="line">
    <rect x="5" y="17" width="62" height="38" fill="none" stroke="#000" stroke-linecap="round" stroke-linejoin="round" stroke-width="2"/>
  </g>
</svg>

<svg viewBox="0 0 72 72" xmlns="http://www.w3.org/2000/svg"><path fill="#b3b3b3" d="M68 4v64H4V4h64m4-4H0v72h72V0z"/><path fill="none" stroke="#00a5ff" stroke-miterlimit="10" stroke-width=".1" d="M12.923 10.958h46.154A1.923 1.923 0 0161 12.881v46.154a1.923 1.923 0 01-1.923 1.923H12.923A1.923 1.923 0 0111 59.035V12.881a1.923 1.923 0 011.923-1.923z"/><rect x="16" y="4" rx="2.254" ry="2.254" width="40" height="64" fill="none" stroke="#00a5ff" stroke-miterlimit="10" stroke-width=".1"/><rect x="16" y="4" rx="2.254" ry="2.254" width="40" height="64" transform="rotate(90 36 36)" fill="none" stroke="#00a5ff" stroke-miterlimit="10" stroke-width=".1"/><circle cx="36" cy="36" r="29" fill="none" stroke="#00a5ff" stroke-miterlimit="10" stroke-width=".1"/><path d="M5 17h62v38H5z" stroke-linecap="round" stroke-miterlimit="10" stroke-width="6" stroke="#fff" fill="none" stroke-linejoin="round"/><path fill="#fff" d="M5 17h62v38H5z"/><path fill="#92d3f5" d="M5 17h21v38H5zm41 0h21v38H46z"/><path fill="none" stroke="#b1cc33" stroke-linecap="round" stroke-linejoin="round" stroke-width="2" d="M31.106 30a7 7 0 109.788 0"/><path fill="none" stroke="#a57939" stroke-linecap="round" stroke-linejoin="round" stroke-width="2" d="M32 38l-3 4m11-3l3 3"/><path fill="#fcea2b" stroke="#fcea2b" stroke-linecap="round" stroke-linejoin="round" stroke-width="2" d="M35 36a4.925 4.925 0 002.5-4 4.925 4.925 0 00-2.5-4z"/><g><path fill="none" stroke="#000" stroke-linecap="round" stroke-linejoin="round" stroke-width="2" d="M5 17h62v38H5z"/></g></svg>
